src/assets/contact-logo.svg

<svg fill="none" height="119" viewBox="0 0 119 119" width="119" xmlns="http://www.w3.org/2000/svg"><g fill="#fff"><path d="m108.579 94.4202v9.4408h-11.8139c-8.2602-.006-16.3178-2.558-23.0753-7.309-6.7575-4.7506-11.8863-11.4687-14.688-19.2394-2.8035 7.7687-7.9331 14.4845-14.6905 19.2331-6.7573 4.7483-14.8139 7.2993-23.0729 7.3043h-11.81347v-9.4298h11.80637c7.7306.0012 15.1767-2.9162 20.8488-8.1688 5.6721-5.2525 9.152-12.4529 9.7436-20.1608h14.3419c.5916 7.7079 4.0716 14.9083 9.7437 20.1608 5.6721 5.2526 13.1181 8.17 20.8487 8.1688z"/><path d="m118.005 63.7285c.002 1.4379-.141 2.8723-.428 4.2813-1.015 4.9053-3.731 9.2943-7.667 12.3921-3.937 3.0977-8.841 4.705-13.8476 4.5381-5.0065-.1669-9.793-2.0972-13.5145-5.4503-3.7214-3.353-6.1386-7.9131-6.8246-12.8751-.5925-4.2564.1264-8.5923 2.0609-12.4296.5354-1.0726 1.1634-2.0964 1.8769-3.0596.0673-.0886.1416-.1806.216-.2833 3.3112-4.4659 5.0944-9.8802 5.0852-15.4397 0-6.8851-2.7352-13.4883-7.6037-18.3568-4.8685-4.8686-11.4717-7.60371-18.3569-7.60371-6.8851 0-13.4883 2.73511-18.3569 7.60371-4.8685 4.8685-7.6036 11.4717-7.6036 18.3568-.0139 5.5668 1.7696 10.9892 5.0851 15.4609.0744.1027.1488.1948.2161.2833.7135.9633 1.3415 1.9871 1.8768 3.0596 1.3623 2.7038 2.1311 5.6675 2.2548 8.6926s-.4006 6.0417-1.5376 8.8477c-1.1371 2.8059-2.8607 5.3365-5.0554 7.4221-2.1946 2.0857-4.8097 3.6782-7.6699 4.6709-2.8603.9927-5.8996 1.3626-8.9145 1.0851-3.0149-.2776-5.9356-1.1963-8.5665-2.6945-2.6309-1.4983-4.91123-3.5415-6.68821-5.9927-1.77698-2.4513-3.00957-5.2541-3.615179-8.2205-.700557-3.4483-.536521-7.0163.477464-10.3858 1.013985-3.3694 2.846375-6.4354 5.333645-8.9244l2.76214 2.7657 3.89534 3.913c-1.5967 1.5975-2.7013 3.6197-3.18263 5.8264-.48138 2.2067-.3193 4.5052.46703 6.6225.7862 2.1173 2.1637 3.9644 3.9687 5.322 1.805 1.3577 3.9618 2.1687 6.2141 2.3368 2.2523.1682 4.5056-.3137 6.4922-1.3883 1.9865-1.0745 3.623-2.6967 4.7149-4.6738s1.5934-4.2261 1.445-6.4798-.9405-4.4174-2.2823-6.2343c-.0425-.0495-.0744-.0956-.1098-.1416-2.9884-3.998-5.0945-8.5845-6.1794-13.4566-.0318-.131-.0566-.2691-.0885-.4037-.505-2.4036-.7613-4.8529-.7649-7.309 0-.7602.0248-1.5157.0744-2.2664.1962-3.1736.8241-6.3057 1.8662-9.3098 2.4082-6.9582 6.9256-12.9926 12.9234-17.26359 5.9978-4.27102 13.1778-6.56621 20.5409-6.56621s14.5432 2.29519 20.541 6.56621c5.9978 4.27099 10.5151 10.30539 12.9234 17.26359 1.0449 3.0096 1.6739 6.1477 1.8697 9.3275.0496.7508.0744 1.5062.0744 2.2664-.001 2.451-.2538 4.8955-.7543 7.2949-.0318.1345-.0566.2726-.0885.4037-1.0848 4.8721-3.191 9.4586-6.1794 13.4565-.0354.0461-.0673.0921-.1098.1417-1.343 1.8172-2.1361 3.9817-2.2852 6.2364s.3522 4.5048 1.4443 6.4829c1.092 1.9782 2.729 3.6014 4.7164 4.6766 1.9874 1.0753 4.2417 1.5574 6.495 1.3892 2.2534-.1682 4.4114-.9797 6.2164-2.3381 1.806-1.3584 3.184-3.2066 3.97-5.325s.948-4.418.466-6.6255c-.482-2.2076-1.588-4.2304-3.186-5.828l3.913-3.913 2.762-2.7657c1.976 1.97 3.542 4.311 4.61 6.8883 1.067 2.5773 1.615 5.3402 1.612 8.1299z"/><path d="m37.8886 118.012c.5868-5.189 3.0637-9.98 6.9579-13.459 3.8942-3.478 8.9331-5.4011 14.1548-5.4011s10.2605 1.9231 14.1548 5.4011c3.8942 3.479 6.3711 8.27 6.9578 13.459h-9.5612c-.5464-2.664-1.9957-5.058-4.103-6.777-2.1072-1.719-4.7432-2.657-7.4626-2.657s-5.3554.938-7.4626 2.657-3.5565 4.113-4.1029 6.777z"/><path d="m54.2817 51.9259c1.3026 0 2.3585-1.0559 2.3585-2.3585 0-1.3025-1.0559-2.3584-2.3585-2.3584-1.3025 0-2.3584 1.0559-2.3584 2.3584 0 1.3026 1.0559 2.3585 2.3584 2.3585z"/><path d="m63.721 51.9259c1.3025 0 2.3584-1.0559 2.3584-2.3585 0-1.3025-1.0559-2.3584-2.3584-2.3584-1.3026 0-2.3585 1.0559-2.3585 2.3584 0 1.3026 1.0559 2.3585 2.3585 2.3585z"/></g></svg>

<svg width="119" height="119" viewBox="0 0 119 119" fill="none" xmlns="http://www.w3.org/2000/svg">
<path d="M108.579 94.4202V103.861H96.7651C88.5049 103.855 80.4473 101.303 73.6898 96.552C66.9323 91.8014 61.8035 85.0833 59.0018 77.3126C56.1983 85.0813 51.0687 91.7971 44.3113 96.5457C37.554 101.294 29.4974 103.845 21.2384 103.85H9.42493V94.4202H21.2313C28.9619 94.4214 36.408 91.504 42.0801 86.2514C47.7522 80.9989 51.2321 73.7985 51.8237 66.0906H66.1656C66.7572 73.7985 70.2372 80.9989 75.9093 86.2514C81.5814 91.504 89.0274 94.4214 96.758 94.4202H108.579Z" fill="white"/>
<path d="M118.005 63.7285C118.007 65.1664 117.864 66.6008 117.577 68.0098C116.562 72.9151 113.846 77.3041 109.91 80.4019C105.973 83.4996 101.069 85.1069 96.0624 84.94C91.0559 84.7731 86.2694 82.8428 82.5479 79.4897C78.8265 76.1367 76.4093 71.5766 75.7233 66.6146C75.1308 62.3582 75.8497 58.0223 77.7842 54.185C78.3196 53.1124 78.9476 52.0886 79.6611 51.1254C79.7284 51.0368 79.8027 50.9448 79.8771 50.8421C83.1883 46.3762 84.9715 40.9619 84.9623 35.4024C84.9623 28.5173 82.2271 21.9141 77.3586 17.0456C72.4901 12.177 65.8869 9.44189 59.0017 9.44189C52.1166 9.44189 45.5134 12.177 40.6448 17.0456C35.7763 21.9141 33.0412 28.5173 33.0412 35.4024C33.0273 40.9692 34.8108 46.3916 38.1263 50.8633C38.2007 50.966 38.2751 51.0581 38.3424 51.1466C39.0559 52.1099 39.6839 53.1337 40.2192 54.2062C41.5815 56.91 42.3503 59.8737 42.474 62.8988C42.5977 65.9239 42.0734 68.9405 40.9364 71.7465C39.7993 74.5524 38.0757 77.083 35.881 79.1686C33.6864 81.2543 31.0713 82.8468 28.2111 83.8395C25.3508 84.8322 22.3115 85.2021 19.2966 84.9246C16.2817 84.647 13.361 83.7283 10.7301 82.2301C8.0992 80.7318 5.81887 78.6886 4.04189 76.2374C2.26491 73.7861 1.03232 70.9833 0.426711 68.0169C-0.273846 64.5686 -0.10981 61.0006 0.904175 57.6311C1.91816 54.2617 3.75055 51.1957 6.23782 48.7067L8.99996 51.4724L12.8953 55.3854C11.2986 56.9829 10.194 59.0051 9.71267 61.2118C9.23129 63.4185 9.39337 65.717 10.1797 67.8343C10.9659 69.9516 12.3434 71.7987 14.1484 73.1563C15.9534 74.514 18.1102 75.325 20.3625 75.4931C22.6148 75.6613 24.8681 75.1794 26.8547 74.1048C28.8412 73.0303 30.4777 71.4081 31.5696 69.431C32.6615 67.4539 33.163 65.2049 33.0146 62.9512C32.8662 60.6975 32.0741 58.5338 30.7323 56.7169C30.6898 56.6674 30.6579 56.6213 30.6225 56.5753C27.6341 52.5773 25.528 47.9908 24.4431 43.1187C24.4113 42.9877 24.3865 42.8496 24.3546 42.715C23.8496 40.3114 23.5933 37.8621 23.5897 35.406C23.5897 34.6458 23.6145 33.8903 23.6641 33.1396C23.8603 29.966 24.4882 26.8339 25.5303 23.8298C27.9385 16.8716 32.4559 10.8372 38.4537 6.56621C44.4515 2.29519 51.6315 0 58.9946 0C66.3577 0 73.5378 2.29519 79.5356 6.56621C85.5334 10.8372 90.0507 16.8716 92.459 23.8298C93.5039 26.8394 94.1329 29.9775 94.3287 33.1573C94.3783 33.9081 94.4031 34.6635 94.4031 35.4237C94.4021 37.8747 94.1493 40.3192 93.6488 42.7186C93.617 42.8531 93.5922 42.9912 93.5603 43.1223C92.4755 47.9944 90.3693 52.5809 87.3809 56.5788C87.3455 56.6249 87.3136 56.6709 87.2711 56.7205C85.9281 58.5377 85.135 60.7022 84.9859 62.9569C84.8368 65.2116 85.3381 67.4617 86.4302 69.4398C87.5222 71.418 89.1592 73.0412 91.1466 74.1164C93.134 75.1917 95.3883 75.6738 97.6416 75.5056C99.895 75.3374 102.053 74.5259 103.858 73.1675C105.664 71.8091 107.042 69.9609 107.828 67.8425C108.614 65.7241 108.776 63.4245 108.294 61.217C107.812 59.0094 106.706 56.9866 105.108 55.389L109.021 51.476L111.783 48.7103C113.759 50.6803 115.325 53.0213 116.393 55.5986C117.46 58.1759 118.008 60.9388 118.005 63.7285Z" fill="white"/>
<path d="M37.8886 118.012C38.4754 112.823 40.9523 108.032 44.8465 104.553C48.7407 101.075 53.7796 99.1519 59.0013 99.1519C64.223 99.1519 69.2618 101.075 73.1561 104.553C77.0503 108.032 79.5272 112.823 80.1139 118.012H70.5527C70.0063 115.348 68.557 112.954 66.4497 111.235C64.3425 109.516 61.7065 108.578 58.9871 108.578C56.2677 108.578 53.6317 109.516 51.5245 111.235C49.4173 112.954 47.968 115.348 47.4216 118.012H37.8886Z" fill="white"/>
<path d="M54.2817 51.9259C55.5843 51.9259 56.6402 50.87 56.6402 49.5674C56.6402 48.2649 55.5843 47.209 54.2817 47.209C52.9792 47.209 51.9233 48.2649 51.9233 49.5674C51.9233 50.87 52.9792 51.9259 54.2817 51.9259Z" fill="white"/>
<path d="M63.721 51.9259C65.0235 51.9259 66.0794 50.87 66.0794 49.5674C66.0794 48.2649 65.0235 47.209 63.721 47.209C62.4184 47.209 61.3625 48.2649 61.3625 49.5674C61.3625 50.87 62.4184 51.9259 63.721 51.9259Z" fill="white"/>
</svg>
